X:1
T:Hogy ne sírjon az az anya
C:Hungarian folk song
Z:Public Domain
L:1/8
M:4/4
K:C
V:1 treble nm="Voice"
%%MIDI program 52
V:1
 C2 C2 EDA,B, | C4 G,4 | E2 E2 DCEG | D4 D4 |: E2 G2 FEDD | A,4 D4 | C2 F2 EDED | C4 C4 :| %8
w: Hogy ne sír- jon az az|a- nya,|ki- nek két fi- a ka-|to- na,|a har- mad- ik el- in-|dít- va,|a ne- gye- dik fel van|ír- va.-|

